X: 34454
T: Ride A Mile
R: slip jig
M: 9/8
K: Gmajor
dBG GAG BAG|dBG GBd e2g|dBG GAG BAG|e2A ABA c2e:|
|:def gag fed|g2B B2c d2B|def gag fed|a2A A2B c2e:|

